static/images/vip-icon.svg

<svg width="26" height="26" viewBox="0 0 26 26" fill="none" xmlns="http://www.w3.org/2000/svg">
<path fill-rule="evenodd" clip-rule="evenodd" d="M1.82154 5.87475C1.10323 5.44377 0.205107 6.03407 0.315818 6.86441L2.17861 20.8354C2.44357 22.8226 4.13871 24.3067 6.14352 24.3067H19.9394C21.9442 24.3067 23.6393 22.8226 23.9043 20.8354L25.7671 6.86441C25.8778 6.03407 24.9797 5.44377 24.2614 5.87475L19.5415 8.7067L13.8097 1.82857C13.4099 1.34881 12.673 1.34881 12.2732 1.82857L6.54146 8.7067L1.82154 5.87475ZM11.005 13.1126C10.4815 12.2401 9.14146 12.6113 9.14146 13.6288C9.14146 13.8106 9.19088 13.9891 9.28443 14.145L11.7673 18.283C12.3444 19.245 13.7385 19.245 14.3157 18.283L16.7985 14.145C16.892 13.9891 16.9415 13.8106 16.9415 13.6288C16.9415 12.6113 15.6014 12.2401 15.0779 13.1126L13.1814 16.2734C13.118 16.3791 12.9649 16.3791 12.9015 16.2734L11.005 13.1126Z" fill="#FAC33D"/>
</svg>

<svg xmlns="http://www.w3.org/2000/svg" width="26" height="26" fill="none"><path fill="#FAC33D" fill-rule="evenodd" d="M1.822 5.875a1 1 0 0 0-1.506.99l1.863 13.97a4 4 0 0 0 3.965 3.472h13.795a4 4 0 0 0 3.965-3.472l1.863-13.97a1 1 0 0 0-1.506-.99l-4.72 2.832-5.731-6.878a1 1 0 0 0-1.537 0L6.541 8.707l-4.72-2.832Zm9.183 7.238c-.524-.873-1.864-.502-1.864.516 0 .182.05.36.143.516l2.483 4.138a1.486 1.486 0 0 0 2.549 0l2.482-4.138c.094-.156.144-.334.144-.516 0-1.018-1.34-1.389-1.864-.516l-1.897 3.16a.163.163 0 0 1-.28 0l-1.896-3.16Z" clip-rule="evenodd"/></svg>
